src/assets/Art Profile Pic.svg

<?xml version="1.0" encoding="UTF-8"?>
<svg data-name="Layer 1" viewBox="0 0 417.76 467.69" xmlns="http://www.w3.org/2000/svg">
    <defs>
        <style>
            .cls-1,
            .cls-2 {
                fill: #fff;
            }

            .cls-10,
            .cls-12,
            .cls-14,
            .cls-15,
            .cls-17,
            .cls-2,
            .cls-22 {
                fill-rule: evenodd;
            }

            .cls-3 {
                mask: url(#g);
            }

            .cls-4 {
                fill: #e6e6e6;
            }

            .cls-5 {
                fill: #707070;
            }

            .cls-6 {
                mask: url(#f);
            }

            .cls-7 {
                mask: url(#e);
            }

            .cls-8 {
                fill: #d0c6ac;
            }

            .cls-9 {
                fill: #edb98a;
            }

            .cls-10 {
                fill-opacity: 0.1;
            }

            .cls-11 {
                mask: url(#d);
            }

            .cls-12 {
                fill: #b7c1db;
            }

            .cls-13 {
                fill: #2f2e41;
            }

            .cls-14 {
                fill: #f4f4f4;
            }

            .cls-15 {
                fill-opacity: 0.16;
            }

            .cls-16 {
                mask: url(#c);
            }

            .cls-17 {
                fill-opacity: 0.7;
            }

            .cls-18 {
                fill: #ff4f6d;
            }

            .cls-19 {
                fill-opacity: 0.6;
            }

            .cls-20 {
                mask: url(#b);
            }

            .cls-21 {
                mask: url(#a);
            }

            .cls-22 {
                fill: #28354b;
            }

            .cls-23 {
                fill: #4a312c;
            }
        </style>
        <mask id="g" x="2.39" y="54.55" width="412.73" height="413.14" maskUnits="userSpaceOnUse">
            <path class="cls-1"
                d="M208.76,467.69c114,0,206.36-92.48,206.36-206.57S322.73,54.55,208.76,54.55,2.39,147,2.39,261.12,94.79,467.69,208.76,467.69Z" />
        </mask>
        <mask id="f" x="-18.24" y="-14.31" width="454" height="482" maskUnits="userSpaceOnUse">
            <path class="cls-1"
                d="M2.39,261.12c0,114.09,92.4,206.57,206.37,206.57s206.36-92.48,206.36-206.57h20.64V-14.31h-454V261.12Z" />
        </mask>
        <mask id="e" x="-18.24" y="47.66" width="454" height="420.03" maskUnits="userSpaceOnUse">
            <path class="cls-1"
                d="M250,296.6v31.66h6.88A123.88,123.88,0,0,1,380.73,452.2v15.49H36.79V452.2A123.88,123.88,0,0,1,160.61,328.26h6.88V296.6a96.43,96.43,0,0,1-54.51-77,20.65,20.65,0,0,1-17.72-20.45v-24.1a20.66,20.66,0,0,1,17.2-20.37V144.06a96.3,96.3,0,1,1,192.6,0v10.62a20.66,20.66,0,0,1,17.2,20.37v24.1a20.66,20.66,0,0,1-17.72,20.45A96.47,96.47,0,0,1,250,296.6Z" />
        </mask>
        <mask id="d" x="-18.24" y="278.34" width="454" height="189.36" maskUnits="userSpaceOnUse">
            <path class="cls-2"
                d="M167.49,300.84c-30.82,3.45-54.55,12.87-55,37.13A124,124,0,0,0,36.79,452.2v15.49H380.73V452.2A124,124,0,0,0,305.05,338c-.47-24.26-24.2-33.68-55-37.13v32.58a41.27,41.27,0,1,1-82.54,0Z" />
        </mask>
        <mask id="c" x="176.27" y="219.81" width="64.98" height="75.74" maskUnits="userSpaceOnUse">
            <path class="cls-2"
                d="m176.29 242.41a32.67 32.67 0 0 0 65-0.16 3.61 3.61 0 0 0-3.18-3.51h-58.4a3.67 3.67 0 0 0-3.42 3.67z" />
        </mask>
        <mask id="b" x="-18.24" y="-14.31" width="454" height="482" maskUnits="userSpaceOnUse">
            <path class="cls-1" d="m435.76-14.31h-454v482h454z" />
        </mask>
        <mask id="a" x="-19.96" y="-14.31" width="454" height="482" maskUnits="userSpaceOnUse">
            <path class="cls-2"
                d="M295.91,52.74c9.3-8.52,11.54-25.8,6.26-37C295.69,2,282.54.24,269.93,6.3c-11.88,5.7-22.45,7.6-35.46,4.84C222,8.49,210.14,3.81,197.24,3A69.87,69.87,0,0,0,141,25.51a61,61,0,0,0-7.08,10c-1.68,2.81-3.57,5.82-4.29,9-.34,1.54.3,5.33-.47,6.59s-3.95,2.61-5.28,3.62a43.05,43.05,0,0,0-7.18,7c-4.59,5.55-7.11,11.34-9.24,18.2-7,22.8-7.65,49.92,1.47,72.31,1.22,3,5,9.21,7.2,2.81.44-1.26-.57-5.49-.57-6.77,0-4.68,2.59-35.68,13.84-53,3.66-5.65,20.59-26.82,24-27,1.84,2.92,20.43,21.53,68.69,19.35,21.78-1,38.52-10.78,42.54-15,1.77,9.52,22.35,23.78,25.48,29.65,9.06,17,11.07,52.17,14.52,52.1s5.94-9,6.65-10.73c5.29-12.69,6.19-28.63,5.62-42.27C316.22,83.76,309,64.78,295.91,52.74Z" />
        </mask>
    </defs>
    <g class="cls-3">
        <path class="cls-4"
            d="M208.76,467.69c114,0,206.36-92.48,206.36-206.57S322.73,54.55,208.76,54.55,2.39,147,2.39,261.12,94.79,467.69,208.76,467.69Z" />
        <path class="cls-5" d="M415.12,54.55H2.39V467.69H415.12Z" />
    </g>
    <g class="cls-6">
        <g class="cls-7">
            <path class="cls-8"
                d="M250,296.6v31.66h6.88A123.88,123.88,0,0,1,380.73,452.2v15.49H36.79V452.2A123.88,123.88,0,0,1,160.61,328.26h6.88V296.6a96.43,96.43,0,0,1-54.51-77,20.65,20.65,0,0,1-17.72-20.45v-24.1a20.66,20.66,0,0,1,17.2-20.37V144.06a96.3,96.3,0,1,1,192.6,0v10.62a20.66,20.66,0,0,1,17.2,20.37v24.1a20.66,20.66,0,0,1-17.72,20.45A96.47,96.47,0,0,1,250,296.6Z" />
            <path class="cls-9" d="m435.76 47.66h-454v420h454z" />
            <path class="cls-10" d="m305.06 183.66v39.59a96.3 96.3 0 1 1-192.6 0v-13.77a96.3 96.3 0 1 0 192.6 0z" />
        </g>
        <g class="cls-11">
            <path class="cls-12"
                d="M167.49,300.84c-30.82,3.45-54.55,12.87-55,37.13A124,124,0,0,0,36.79,452.2v15.49H380.73V452.2A124,124,0,0,0,305.05,338c-.47-24.26-24.2-33.68-55-37.13v32.58a41.27,41.27,0,1,1-82.54,0Z" />
            <path class="cls-13" d="m435.76 278.34h-454v189.35h454z" />
            <path class="cls-14"
                d="m157.17 384.61v83.08h-12v-89.25a110.6 110.6 0 0 0 12 6.17zm115.22-6.17v69.46a6 6 0 0 1-12 0v-63.29a110.6 110.6 0 0 0 12-6.17z" />
            <path class="cls-15"
                d="m138.18 300.24c-25.88 4.9-43.78 14.66-43.78 33.76 0 33.93 56.81 61.44 114.36 61.44s114.36-27.56 114.36-61.44c0-19.05-17.9-28.81-43.79-33.71 15.67 5.71 25.73 15.41 25.73 31.54 0 35.11-47.84 63.56-96.3 63.56s-96.3-28.45-96.3-63.56c0-16.13 10.1-25.83 25.72-31.59z" />
        </g>
        <g class="cls-16">
            <path class="cls-17"
                d="m176.29 242.41a32.67 32.67 0 0 0 65-0.16 3.61 3.61 0 0 0-3.18-3.51h-58.4a3.67 3.67 0 0 0-3.42 3.67z" />
            <path class="cls-1"
                d="m227.68 219.81h-36.12a8.6 8.6 0 0 0-8.6 8.6v10.33a8.6 8.6 0 0 0 8.6 8.61h36.12a8.6 8.6 0 0 0 8.59-8.61v-10.33a8.6 8.6 0 0 0-8.59-8.6z" />
            <path class="cls-18" d="m200.16 295.55a18.94 18.94 0 1 0-18.92-18.94 18.93 18.93 0 0 0 18.92 18.94z" />
            <path class="cls-18" d="m217.36 295.55a18.94 18.94 0 1 0-18.92-18.94 18.93 18.93 0 0 0 18.92 18.94z" />
        </g>
        <path class="cls-15" d="m188.12 209.48c0 7.6 9.24 13.77 20.64 13.77s20.63-6.17 20.63-13.77" />
        <path class="cls-19" d="m164.05 188.82a10.33 10.33 0 1 0-10.32-10.33 10.32 10.32 0 0 0 10.32 10.33z" />
        <path class="cls-19" d="m253.47 188.82a10.33 10.33 0 1 0-10.32-10.33 10.32 10.32 0 0 0 10.32 10.33z" />
        <path class="cls-19"
            d="M139.27,151.23c7.73-10.89,24.09-16.37,40.85-11a3.44,3.44,0,1,0,2.11-6.55c-19.62-6.34-39.1.19-48.57,13.52a3.44,3.44,0,1,0,5.61,4Z" />
        <path class="cls-19"
            d="m278.2 163.27c-6.74-9.48-25.19-14.8-41.09-10.89a3.44 3.44 0 0 1-1.64-6.69c18.46-4.54 39.83 1.62 48.33 13.59a3.44 3.44 0 1 1-5.6 4z" />
        <g class="cls-20">
            <g class="cls-21">
                <path class="cls-22"
                    d="M295.91,52.74c9.3-8.52,11.54-25.8,6.26-37C295.69,2,282.54.24,269.93,6.3c-11.88,5.7-22.45,7.6-35.46,4.84C222,8.49,210.14,3.81,197.24,3A69.87,69.87,0,0,0,141,25.51a61,61,0,0,0-7.08,10c-1.68,2.81-3.57,5.82-4.29,9-.34,1.54.3,5.33-.47,6.59s-3.95,2.61-5.28,3.62a43.05,43.05,0,0,0-7.18,7c-4.59,5.55-7.11,11.34-9.24,18.2-7,22.8-7.65,49.92,1.47,72.31,1.22,3,5,9.21,7.2,2.81.44-1.26-.57-5.49-.57-6.77,0-4.68,2.59-35.68,13.84-53,3.66-5.65,20.59-26.82,24-27,1.84,2.92,20.43,21.53,68.69,19.35,21.78-1,38.52-10.78,42.54-15,1.77,9.52,22.35,23.78,25.48,29.65,9.06,17,11.07,52.17,14.52,52.1s5.94-9,6.65-10.73c5.29-12.69,6.19-28.63,5.62-42.27C316.22,83.76,309,64.78,295.91,52.74Z" />
                <path class="cls-23" d="M434-14.31H-20v482H434Z" />
            </g>
        </g>
    </g>
</svg>

<svg id="Layer_1" data-name="Layer 1" xmlns="http://www.w3.org/2000/svg" xmlns:xlink="http://www.w3.org/1999/xlink" viewBox="0 0 417.76 467.69"><defs><style>.cls-1,.cls-2{fill:#fff;}.cls-10,.cls-12,.cls-14,.cls-15,.cls-17,.cls-2,.cls-22{fill-rule:evenodd;}.cls-3{mask:url(#mask);}.cls-4{fill:#e6e6e6;}.cls-5{fill:#707070;}.cls-6{mask:url(#mask-2);}.cls-7{mask:url(#mask-3);}.cls-8{fill:#d0c6ac;}.cls-9{fill:#edb98a;}.cls-10{fill-opacity:0.1;}.cls-11{mask:url(#mask-4);}.cls-12{fill:#b7c1db;}.cls-13{fill:#2f2e41;}.cls-14{fill:#f4f4f4;}.cls-15{fill-opacity:0.16;}.cls-16{mask:url(#mask-5);}.cls-17{fill-opacity:0.7;}.cls-18{fill:#ff4f6d;}.cls-19{fill-opacity:0.6;}.cls-20{mask:url(#mask-6);}.cls-21{mask:url(#mask-7);}.cls-22{fill:#28354b;}.cls-23{fill:#4a312c;}</style><mask id="mask" x="2.39" y="54.55" width="412.73" height="413.14" maskUnits="userSpaceOnUse"><g id="mask0"><path class="cls-1" d="M208.76,467.69c114,0,206.36-92.48,206.36-206.57S322.73,54.55,208.76,54.55,2.39,147,2.39,261.12,94.79,467.69,208.76,467.69Z"/></g></mask><mask id="mask-2" x="-18.24" y="-14.31" width="454" height="482" maskUnits="userSpaceOnUse"><g id="mask1"><path class="cls-1" d="M2.39,261.12c0,114.09,92.4,206.57,206.37,206.57s206.36-92.48,206.36-206.57h20.64V-14.31h-454V261.12Z"/></g></mask><mask id="mask-3" x="-18.24" y="47.66" width="454" height="420.03" maskUnits="userSpaceOnUse"><g id="mask2"><path class="cls-1" d="M250,296.6v31.66h6.88A123.88,123.88,0,0,1,380.73,452.2v15.49H36.79V452.2A123.88,123.88,0,0,1,160.61,328.26h6.88V296.6a96.43,96.43,0,0,1-54.51-77,20.65,20.65,0,0,1-17.72-20.45v-24.1a20.66,20.66,0,0,1,17.2-20.37V144.06a96.3,96.3,0,1,1,192.6,0v10.62a20.66,20.66,0,0,1,17.2,20.37v24.1a20.66,20.66,0,0,1-17.72,20.45A96.47,96.47,0,0,1,250,296.6Z"/></g></mask><mask id="mask-4" x="-18.24" y="278.34" width="454" height="189.36" maskUnits="userSpaceOnUse"><g id="mask3"><path class="cls-2" d="M167.49,300.84c-30.82,3.45-54.55,12.87-55,37.13A124,124,0,0,0,36.79,452.2v15.49H380.73V452.2A124,124,0,0,0,305.05,338c-.47-24.26-24.2-33.68-55-37.13v32.58a41.27,41.27,0,1,1-82.54,0Z"/></g></mask><mask id="mask-5" x="176.27" y="219.81" width="64.98" height="75.74" maskUnits="userSpaceOnUse"><g id="mask4"><path class="cls-2" d="M176.29,242.41a32.67,32.67,0,0,0,65-.16,3.61,3.61,0,0,0-3.18-3.51h-58.4A3.67,3.67,0,0,0,176.29,242.41Z"/></g></mask><mask id="mask-6" x="-18.24" y="-14.31" width="454" height="482" maskUnits="userSpaceOnUse"><g id="mask5"><path class="cls-1" d="M435.76-14.31h-454v482h454Z"/></g></mask><mask id="mask-7" x="-19.96" y="-14.31" width="454" height="482" maskUnits="userSpaceOnUse"><g id="mask6"><path class="cls-2" d="M295.91,52.74c9.3-8.52,11.54-25.8,6.26-37C295.69,2,282.54.24,269.93,6.3c-11.88,5.7-22.45,7.6-35.46,4.84C222,8.49,210.14,3.81,197.24,3A69.87,69.87,0,0,0,141,25.51a61,61,0,0,0-7.08,10c-1.68,2.81-3.57,5.82-4.29,9-.34,1.54.3,5.33-.47,6.59s-3.95,2.61-5.28,3.62a43.05,43.05,0,0,0-7.18,7c-4.59,5.55-7.11,11.34-9.24,18.2-7,22.8-7.65,49.92,1.47,72.31,1.22,3,5,9.21,7.2,2.81.44-1.26-.57-5.49-.57-6.77,0-4.68,2.59-35.68,13.84-53,3.66-5.65,20.59-26.82,24-27,1.84,2.92,20.43,21.53,68.69,19.35,21.78-1,38.52-10.78,42.54-15,1.77,9.52,22.35,23.78,25.48,29.65,9.06,17,11.07,52.17,14.52,52.1s5.94-9,6.65-10.73c5.29-12.69,6.19-28.63,5.62-42.27C316.22,83.76,309,64.78,295.91,52.74Z"/></g></mask></defs><g class="cls-3"><path class="cls-4" d="M208.76,467.69c114,0,206.36-92.48,206.36-206.57S322.73,54.55,208.76,54.55,2.39,147,2.39,261.12,94.79,467.69,208.76,467.69Z"/><path class="cls-5" d="M415.12,54.55H2.39V467.69H415.12Z"/></g><g class="cls-6"><g class="cls-7"><path class="cls-8" d="M250,296.6v31.66h6.88A123.88,123.88,0,0,1,380.73,452.2v15.49H36.79V452.2A123.88,123.88,0,0,1,160.61,328.26h6.88V296.6a96.43,96.43,0,0,1-54.51-77,20.65,20.65,0,0,1-17.72-20.45v-24.1a20.66,20.66,0,0,1,17.2-20.37V144.06a96.3,96.3,0,1,1,192.6,0v10.62a20.66,20.66,0,0,1,17.2,20.37v24.1a20.66,20.66,0,0,1-17.72,20.45A96.47,96.47,0,0,1,250,296.6Z"/><path class="cls-9" d="M435.76,47.66h-454v420h454Z"/><path class="cls-10" d="M305.06,183.66v39.59a96.3,96.3,0,1,1-192.6,0V209.48a96.3,96.3,0,1,0,192.6,0Z"/></g><g class="cls-11"><path class="cls-12" d="M167.49,300.84c-30.82,3.45-54.55,12.87-55,37.13A124,124,0,0,0,36.79,452.2v15.49H380.73V452.2A124,124,0,0,0,305.05,338c-.47-24.26-24.2-33.68-55-37.13v32.58a41.27,41.27,0,1,1-82.54,0Z"/><path class="cls-13" d="M435.76,278.34h-454V467.69h454Z"/><path class="cls-14" d="M157.17,384.61v83.08h-12V378.44A110.6,110.6,0,0,0,157.17,384.61Zm115.22-6.17V447.9a6,6,0,0,1-12,0V384.61A110.6,110.6,0,0,0,272.39,378.44Z"/><path class="cls-15" d="M138.18,300.24C112.3,305.14,94.4,314.9,94.4,334c0,33.93,56.81,61.44,114.36,61.44S323.12,367.88,323.12,334c0-19.05-17.9-28.81-43.79-33.71C295,306,305.06,315.7,305.06,331.83c0,35.11-47.84,63.56-96.3,63.56s-96.3-28.45-96.3-63.56C112.46,315.7,122.56,306,138.18,300.24Z"/></g><g class="cls-16"><path class="cls-17" d="M176.29,242.41a32.67,32.67,0,0,0,65-.16,3.61,3.61,0,0,0-3.18-3.51h-58.4A3.67,3.67,0,0,0,176.29,242.41Z"/><path class="cls-1" d="M227.68,219.81H191.56a8.6,8.6,0,0,0-8.6,8.6v10.33a8.6,8.6,0,0,0,8.6,8.61h36.12a8.6,8.6,0,0,0,8.59-8.61V228.41A8.6,8.6,0,0,0,227.68,219.81Z"/><path class="cls-18" d="M200.16,295.55a18.94,18.94,0,1,0-18.92-18.94A18.93,18.93,0,0,0,200.16,295.55Z"/><path class="cls-18" d="M217.36,295.55a18.94,18.94,0,1,0-18.92-18.94A18.93,18.93,0,0,0,217.36,295.55Z"/></g><path class="cls-15" d="M188.12,209.48c0,7.6,9.24,13.77,20.64,13.77s20.63-6.17,20.63-13.77"/><path class="cls-19" d="M164.05,188.82a10.33,10.33,0,1,0-10.32-10.33A10.32,10.32,0,0,0,164.05,188.82Z"/><path class="cls-19" d="M253.47,188.82a10.33,10.33,0,1,0-10.32-10.33A10.32,10.32,0,0,0,253.47,188.82Z"/><path class="cls-19" d="M139.27,151.23c7.73-10.89,24.09-16.37,40.85-11a3.44,3.44,0,1,0,2.11-6.55c-19.62-6.34-39.1.19-48.57,13.52a3.44,3.44,0,1,0,5.61,4Z"/><path class="cls-19" d="M278.2,163.27c-6.74-9.48-25.19-14.8-41.09-10.89a3.44,3.44,0,0,1-1.64-6.69c18.46-4.54,39.83,1.62,48.33,13.59a3.44,3.44,0,1,1-5.6,4Z"/><g class="cls-20"><g class="cls-21"><path class="cls-22" d="M295.91,52.74c9.3-8.52,11.54-25.8,6.26-37C295.69,2,282.54.24,269.93,6.3c-11.88,5.7-22.45,7.6-35.46,4.84C222,8.49,210.14,3.81,197.24,3A69.87,69.87,0,0,0,141,25.51a61,61,0,0,0-7.08,10c-1.68,2.81-3.57,5.82-4.29,9-.34,1.54.3,5.33-.47,6.59s-3.95,2.61-5.28,3.62a43.05,43.05,0,0,0-7.18,7c-4.59,5.55-7.11,11.34-9.24,18.2-7,22.8-7.65,49.92,1.47,72.31,1.22,3,5,9.21,7.2,2.81.44-1.26-.57-5.49-.57-6.77,0-4.68,2.59-35.68,13.84-53,3.66-5.65,20.59-26.82,24-27,1.84,2.92,20.43,21.53,68.69,19.35,21.78-1,38.52-10.78,42.54-15,1.77,9.52,22.35,23.78,25.48,29.65,9.06,17,11.07,52.17,14.52,52.1s5.94-9,6.65-10.73c5.29-12.69,6.19-28.63,5.62-42.27C316.22,83.76,309,64.78,295.91,52.74Z"/><path class="cls-23" d="M434-14.31H-20v482H434Z"/></g></g></g></svg>
